X:1
T:6 Songs, Op.6
T:Spanisches Lied
T:Sechs Gesänge
T:für eine Sopran- oder Tenorstimme mit Begleitung des Pianoforte Den Fräulein Luise und Minna Japha zugeeignet 
T:1. Spanisches Lied
T:Johannes Brahms
T:Übersetzt von Paul Heyse
T:6 Songs, Op.6
T:OpenScore (CC0)
T:OpenScore (CC0)
T:OpenScore (CC0)
T:OpenScore (CC0)
C:Johannes Brahms
Z:OpenScore (CC0)
%%score ( 1 2 ) { ( 3 5 ) | ( 4 6 ) }
L:1/8
Q:1/4=116
M:3/4
K:C
V:1 treble nm="Singstimme\nVoice"
V:2 treble 
V:3 treble nm="Pianoforte"
V:5 treble 
V:4 bass 
V:6 bass 
V:1
"^Allegretto" z6 | z6 |!p! E3/2 F/ E A ^G B | (A>F) E2!<(! A B!<)! | %4
w: ||In dem Schat- ten mei- ner|Lo- * cken schlief  mir|
"^sosten."!<(! c3/2 d/!<)!"^dim." !>!e3!p! c | A2 z2 z2 | z6 | z6 | z2!p! (.c .c ._d ._B) | %9
w: mein Ge- lieb- ter|ein;|||weck ich ihn nun|
"^sost."!<(! (A2 c2)!<)! z!f! A | e4 z ^c | %11
w: auf? _ Ach|nein! Ach|
!>(! A4!>)![Q:1/4=110]!p!"^rit." F2[Q:1/4=100]"^T"[Q:1/4=90]"^T" |!pp!!>(! E6-!>)! | E4 z2 || %14
w: nein! Ach|nein!|_|
[K:E][Q:1/4=116]"^a tempo"!f! e3/2 B/ G F E F | G3/2 A/ B2 G2 | e3 B G B | e2 B2 z2 | %18
w: Sorg- lich  strählt ich mei- ne|krau- sen Lo- cken|täg- lich in der|Frü- he,|
!p! B3/2 c/ (.B .e .^d .f) | e2 G2 z2 | B3/2 c/ B e ^d f | e2 G2 z2 | z6 | z6 || %24
w: doch um- sonst ist mei- ne|Mü- he,|weil die Win- de sie zer-|zau- sen;|||
[K:C]!pp! E3/2 F/ E A ^G B | (A>F) E2 z2 |!<(! G B c d!<)!!mp!"^dim." !>!e3/2!p! c/ | A2 z2 z2 | %28
w: Lo- cken- schat- ten, Win- des-|sau- * sen|schlä- fer- ten den Lieb- sten|ein;|
 z6 | z6 | z2!p! (.c .c ._d ._B) |"^sost."!<(! (A2!<)! c2) z!f! A | e4 z ^c | %33
w: ||weck ich ihn nun|auf? _ Ach|nein! Ach|
!>(! A4!>)!!p!"^rit." F2[Q:1/4=110]"^T"[Q:1/4=100]"^T" | %34
w: nein! Ach|
!pp![Q:1/4=95]"^T"!>(! E6-[Q:1/4=90]"^T"[Q:1/4=85]"^T" |[Q:1/4=80]"^T" E4!>)! z2 || %36
w: nein!|_|
[K:E]!f![Q:1/4=116]"^a tempo" e3/2 B/ G F E F | (G>A) B2 z2 | e3/2 B/ G F E F | G2 E2 z2 | %40
w: Hö- ren  muss ich, wie ihn|grä- * me,|dass er  schmach- tet schon so|lan- ge,|
!p! B3/2 c/ B e ^d f | e2 G2 z2 | B3/2 c/ B e ^d f | e2 G2 z2 | z6 | z6 || %46
w: dass ihm Le- ben gäb und|näh- me|die- se mei- ne brau- ne|Wan- ge.|||
[K:C]!p! E3/2 F/ E!<(! A ^G B!<)! |!>(! (A>F)!>)! E2!<(! (.A .B)!<)! | %48
w: Und er  nennt mich sei- ne|Schlan- * ge und doch|
"^sost."!<(! (.c .d)!<)!!mf!"^dim." !>!e3!p! c | A2 z2 z2 | z6 | z6 | z2!p! (.c .c ._d ._B) | %53
w: schlief  er bei mir|ein;|||weck ich ihn nun|
!<(! (A2!<)! c2) z!f! A | e4 z ^c |!>(! A4!>)!"^rit."[Q:1/4=100]"^T"!p! F2[Q:1/4=110]"^T" | %56
w: auf? _ Ach|nein! Ach|nein! Ach|
!pp![Q:1/4=95]"^T"!>(! E6-[Q:1/4=90]"^T"[Q:1/4=85]"^T" |[Q:1/4=80]"^T" E4!>)! z2 |] %58
w: nein!|_|
V:2
 x6 | x6 | x6 | x6 | x6 | x6 | x6 | x6 | x6 | x6 | x6 | x2"^T" x2 x2 | x6 | x6 ||[K:E] x6 | x6 | %16
 x6 | x6 | x6 | x6 | x6 | x6 | x6 | x6 ||[K:C] x6 | x6 | x6 | x6 | x6 | x6 | x6 | x6 | x6 | x6 | %34
 x6 | x6 ||[K:E] x6 | x6 | x6 | x6 | x6 | x6 | x6 | x6 | x6 | x6 ||[K:C] x6 | x6 | x6 | x6 | x6 | %51
 x6 | x6 | x6 | x6 | x6 | x6 | x6 |] %58
V:3
!p! (A,/E/C/F/ E/C/.A,/) z/ (B/^G/.D/) z/ | (A,/E/C/F/ E/C/.A,/) z/ (B/^G/.D/) z/ | %2
 (A,/E/C/F/ E/C/.A,/) z/ (B/^G/.D/) z/ | (A,/E/C/F/ E/C/.A,/) z/ (A/E/.C/) z/ | %4
"_sosten."!<(! (G,/E/C/F/ E/C/.G,/)!<)! z/"_dim." (e/c/.G/) z/ | %5
!p! (A,/E/C/F/ E/C/.A,/) z/!<(! (.A.B) | c>d!<)!!mf! !>![Gce]3"_dim." c | [CEA]4 z2 | %8
!p! ([A,C]>D .[A,C]).[A,F] .[_B,E].[B,G] |!<(! ([CA]>_B .[CA]).[Ad]!<)!.[Ac].[A^d] | %10
!f! e3 x/ z/ (a/e/.^c/) z/ | (A/!>(!f/^c/a/ f/c/!>)!!p!.A/) z/ (d'/a/.d/) z/ | %12
!pp! (3(.^C.E!>(!A) (3(.^c.e.a)!8va(! (3(.^c'.e'.a') | [^c'a'^c'']4-!>)! [c'a'c'']!8va)! z || %14
[K:E]!f! [Ge]>[FB] .[EG].[B,F].[G,E].[B,F] | !>![EG]>[FA] !>![GB]2 !>![EG]2 | %16
 [eg]>[Bf] .[Ge].[FB].[EG].[FB] | !>![Ge]>[Bf] !>![eg]2 !>![Ge]2 |!p! z2 ([GB]>c .[AB]).[Ad] | %19
 !>![Ge]>[Bf] !>![eg]2 !>![Ge]2 | z2 ([GB]>c .[AB]).[Ad] | !>![Ge]>[Bf] !>![eg]2 !>![Ge]2 | %22
 [DA]>B [D=c]2"_dim." [B,D]2 | [=DG]>A [DB]2 [G,E]2 || %24
[K:C]!pp! (A,/E/C/F/ E/C/.A,/) z/ (B/^G/.D/) z/ | (A,/E/C/F/ E/C/.A,/) z/ (A/E/.C/) z/ | %26
 (G,/!<(!E/C/F/ E/C/.G,/)!<)!!mp! z/"_dim." (e/c/.G/) z/ | %27
 (A,/E/C/F/ E/C/.A,/) z/ (c/A/!pp!.E/) z/ |!<(! (.G.B.c.d)!<)!"_dim." !>![Gce]>c | [CEA]4 z2 | %30
!p! ([A,C]>D .[A,C]).[A,F].[_B,E].[B,G] |!<(! ([CA]>_B .[CA]).[Ad]!<)!.[Ac].[A^d] | %32
!f! e3 x/ z/ (a/e/.^c/) z/ | (A/!>(!f/^c/a/ f/c/!>)!!p!.A/) z/ (d'/a/.d/) z/ | %34
!pp! (3(.^C.EA)!>(! (3(.^c.e.a)!8va(! (3(.^c'.e'.a') | [^c'a'^c'']4-!>)! [c'a'c'']!8va)! z || %36
[K:E]!f! [Ge]>[FB] .[EG].[B,F].[G,E].[B,F] | !>![EG]>[FA] !>![GB]2 !>![EG]2 | %38
 [eg]>[Bf] .[Ge].[FB].[EG].[FB] | !>![Ge]>[Bf] !>![eg]2 !>![Ge]2 |!p! z2 ([GB]>c .[AB])[Ad] | %41
 !>![Ge]>[Bf] !>![eg]2 !>![Ge]2 | z2 ([GB]>c .[AB])[Ad] | !>![Ge]>[Bf] !>![eg]2 !>![Ge]2 | %44
 [DA]>B [D=c]2"_dim." [B,D]2 | [=DG]>A [DB]2 [G,E]2 || %46
[K:C]!p! (A,/E/C/F/ E/C/.A,/) z/ (B/^G/.D/) z/ | (A,/E/C/F/ E/C/!<(!.A,/) z/ (A/E/.C/)!<)! z/ | %48
 (G,/!<(!E/C/F/ E/C/.G,/)!<)!!mf! z/"_dim." (e/c/.G/) z/ | (A,/E/C/F/ E/C/.A,/)!p! z/!<(! (.A.B) | %50
 (.c.d)!<)!!mf! !>![Gce]3"_dim." c | [CEA]4 z2 |!p! ([A,C]>D .[A,C]).[A,F] .[_B,E].[B,G] | %53
 ([CA]>_B .[CA]).[Ad].[Ac].[A^d] |!f! e3 x/ z/ (a/e/.^c/) z/ | %55
 (A/!>(!f/^c/a/ f/c/!>)!!p!.A/) z/ (d'/a/.d/) z/ | %56
!pp! (3(.^C.E.A) (3(.^c!>(!.e.a)!8va(! (3(.^c'.e'.a') | [^c'a'^c'']4-!>)! [c'a'c'']!8va)! z |] %58
V:4
 ([A,,E,]>F, .[A,,E,]).[A,,E,]"^leggiero".[A,,F,].[A,,F,] | %1
 ([A,,E,]>F, .[A,,E,]).[A,,E,].[A,,F,].[A,,F,] | ([A,,E,]>F, .[A,,E,]).[A,,E,].[A,,F,].[A,,F,] | %3
 ([A,,E,]>F, .[A,,E,]).[A,,E,].[A,,E,].[A,,E,] | %4
 ([G,,C,E,]>F, .[G,,C,E,]).[G,,C,E,].[G,,C,E,].[G,,C,E,] | %5
 ([A,,C,E,]>F, .[A,,C,E,]).[A,,C,E,] (E/C/.A,/) z/ | (G,,/E,/C,/F,/ E,/C,/.G,,/) z/ (E/C/.G,/) z/ | %7
 (A,,/E,/C,/F,/ E,/C,/.A,,/) z/ (E/C/.A,/) z/ | %8
 (F,,/C,/A,,/D,/ C,/A,,/.F,,/) z/ (_D,/_B,,/.F,,/) z/ | %9
"^sost." (F,,/F,/C,/G,/ F,/C,/.F,,/) z/ (^D/C/.F,/) z/ | [A,^C]3 [A,C][A,C][A,C] | %11
 [A,^C]3 [A,C][A,D][A,D] |"_2 Pedale" (E,>^F, .E,) (.[A,,E,] z .[A,,E,]) | %13
 z3/2 (^F,/ [A,,E,]3) z ||[K:E] [G,E]>[F,B,] .[E,G,].[B,,F,].[G,,E,].[B,,F,] | %15
 !>![E,G,]>[F,A,] !>![G,B,]2 !>![E,G,]2 | [EG]>[B,F] .[G,E].[F,B,].[E,G,].[F,B,] | %17
 !>![G,E]>[B,F] !>![EG]2 !>![G,E]2 | (B,,/G,/E,/A,/ G,/E,/.B,,/) z/ (B,/F,/.B,,/) z/ | %19
 (E/B,/G,/E,/) (C/G,/E,/C,/) (^A,/G,/E,/^A,,/) | (B,,/G,/E,/A,/ G,/E,/B,,/) z/ (B,/F,/.B,,/) z/ | %21
 (E/B,/G,/E,/) (C/G,/E,/C,/) (^A,/G,/E,/^A,,/) | (B,,/A,/F,/B,/ A,/F,/.B,,/) z/ (A,/F,/.B,,/) z/ | %23
 (=F,,/=D,/B,,/=F,/ E,/D,/.B,,/) z/ (D,/B,,/.E,,/) z/ || %24
[K:C] ([A,,E,]>F, .[A,,E,]).[A,,E,].[A,,F,].[A,,F,] | %25
 ([A,,E,]>F, .[A,,E,]).[A,,E,].[A,,E,].[A,,E,] | %26
 ([G,,C,E,]>F, .[G,,C,E,]).[G,,C,E,].[G,,C,E,].[G,,C,E,] | %27
 ([A,,C,E,]>F, .[A,,C,E,]).[A,,C,E,].[A,,C,E,].[A,,C,E,] | %28
 (G,,/E,/C,/F,/ E,/C,/.G,,/) z/ (E/C/.G,/) z/ | (G,,/E,/C,/F,/ E,/C,/.A,,/) z/ (E/C/.A,/) z/ | %30
 (F,,/C,/A,,/D,/ C,/A,,/.F,,/) z/ (_D,/_B,,/.F,,/) z/ | %31
"^sost." (F,,/F,/C,/G,/ F,/C,/.F,,/) z/ (^D/C/.F,/) z/ | [A,^C]3 [A,C][A,C][A,C] | %33
 [A,^C]3 [A,C][A,D][A,D] |"_2 Pedale"!ped! E,>^F, E, (.[A,,E,]z.[A,,E,])!ped-up! | %35
 z3/2 (^F,/ [A,,E,]3) z ||[K:E] [G,E]>[F,B,] .[E,G,].[B,,F,].[G,,E,].[B,,F,] | %37
 !>![E,G,]>[F,A,] !>![G,B,]2 !>![E,G,]2 | [EG]>[B,F] .[G,E].[F,B,].[E,G,].[F,B,] | %39
 !>![G,E]>[B,F] !>![EG]2 !>![G,E]2 | (B,,/G,/E,/A,/ G,/E,/.B,,/) z/ (B,/F,/.B,,/) z/ | %41
 E/B,/G,/E,/ C/G,/E,/C,/ ^A,/G,/E,/^A,,/ | (B,,/G,/E,/A,/ G,/E,/.B,,/) z/ (B,/F,/.B,,/) z/ | %43
 E/B,/G,/E,/ C/G,/E,/C,/ ^A,/G,/E,/^A,,/ | (B,,/A,/F,/B,/ A,/F,/.B,,/) z/ (A,/F,/.B,,/) z/ | %45
 (=F,,/=D,/B,,/=F,/ E,/D,/.B,,/) z/ (D,/B,,/.E,,/) z/ || %46
[K:C] ([A,,E,]>F, .[A,,E,]).[A,,E,].[A,,F,].[A,,F,] | %47
 ([A,,E,]>F, .[A,,E,]).[A,,E,].[A,,E,].[A,,E,] | %48
"^sost." ([G,,C,E,]>F, .[G,,C,E,]).[G,,C,E,].[G,,C,E,].[G,,C,E,] | %49
 ([A,,C,E,]>F, .[A,,C,E,]).[A,,C,E,] (E/C/.A,/) z/ | (G,,/E,/C,/F,/ E,/C,/.G,,/) z/ (E/C/.G,/) z/ | %51
 (A,,/E,/C,/F,/ E,/C,/.A,,/) z/ (E/C/.A,/) z/ | %52
 (F,,/C,/A,,/D,/ C,/A,,/.F,,/) z/ (_D,/_B,,/.F,,/) z/ | %53
 (F,,/F,/C,/G,/ F,/C,/.F,,/) z/ (^D/C/.F,/) z/ | [A,^C]3 [A,C][A,C][A,C] | %55
 [A,^C]3 [A,C][A,D][A,D] |"_2 Pedale" (E,>^F, .E,) (.[A,,E,] z .[A,,E,]) | %57
 z3/2 (^F,/ [A,,E,]3) z |] %58
V:5
 x6 | x6 | x6 | x6 | x6 | x6 | x6 | x6 | x6 | x6 | (E/B/A/d/ ^c/A/.E/) x/ x3/2 x/ | x6 | %12
 x4!8va(! x2 | x5!8va)! x ||[K:E] x6 | x6 | x6 | x6 | x6 | x6 | x6 | x6 | x6 | x6 ||[K:C] x6 | x6 | %26
 x6 | x6 | x6 | x6 | x6 | x6 | (E/B/A/d/ ^c/A/.E/) x/ x3/2 x/ | x6 | x4!8va(! x2 | x5!8va)! x || %36
[K:E] x6 | x6 | x6 | x6 | x6 | x6 | x6 | x6 | x6 | x6 ||[K:C] x6 | x6 | x6 | x6 | x6 | x6 | x6 | %53
 x6 | (E/B/A/d/ ^c/A/.E/) x/ x3/2 x/ | x6 | x4!8va(! x2 | x5!8va)! x |] %58
V:6
 x6 | x6 | x6 | x6 | x6 | x6 | x6 | x6 | x6 | x6 | (E,>^F, .E,).E,.E,.E, | %11
 (=F,>.G,"^rit." .F,)(.F,.F,.F,) | A,,3 x x x | x6 ||[K:E] x6 | x6 | x6 | x6 | x6 | x6 | x6 | x6 | %22
 x6 | x6 ||[K:C] x6 | x6 | x6 | x6 | x6 | x6 | x6 | x6 | (E,>^F, .E,).E,.E,.E, | %33
 (=F,>G,"^rit." .F,)(.F,.F,.F,) | A,,3 x x x | x6 ||[K:E] x6 | x6 | x6 | x6 | x6 | x6 | x6 | x6 | %44
 x6 | x6 ||[K:C] x6 | x6 | x6 | x6 | x6 | x6 | x6 | x6 | (E,>^F, .E,).E,.E,.E, | %55
 (=F,>.G,"^rit." .F,)(.F,.F,.F,) | A,,3 x x x | x6 |] %58

